X: 3
T: Joshua's Dream
R: waltz
M: 3/4
L: 1/8
K: Amaj
c'2 ae cA|b2 ge BG|a2 fa d'f'|e'2 c'3 a|
fe dc df|ed cB AG|F2 A2 d2|Be fg ab|
c'2 bc' ae|b2 c'b ag|a2 ca ba|g2 cc' ag|
f2 Af ed|e2 Ae dc|B2 e2 g2|a3 e c'b|
c'2 ae cA|b2 ge BG|a2 fa d'f'|e'2 c'3 a|
fe dc df|ed cB AG|F2 A2 d2|Bc de fg|
a2 ec ab|g2 ec ga|f2 ga bg|e2 fg af|
d2 fb c'b|a2 ec dc|BG FE DB,|A,3 E cB||

